X:6
T:National Assembly. Tho24CDs1792.06
M:C
L:1/8
Q:1/2=100
C:"78"
B:Thompson 24 CDs 1792
Z:Village Music Project, Chris Partington, 1999 & 2017
W:First Gent turn the 2nd lady .|1st lady turn the 2nd gent :| cross over
W:1st Cu:|. Right and Left:|
K:G
|:GBdg f2e2|decdB2A2|GBdgf2gb|agfed4:|
|:edcB cAa2|dcBA BGg2|edcB ceac|bgdfg2G2:|

